X:39
T:Clam Digger's Jig
C:Roy Watrous, 1991
S:The Watrous Book, 1992
M:6/8
L:1/8
Q:1/8=270
K:D
%%MIDI program 72
%%MIDI transpose 8
%%MIDI ratio 3 1
A|dAf ecA|dfd a2a|bgb afd|Agf e2A|dAf ecA|
dfd a2a|bgb afd|Afe d2::e|Tf3 efe|dcB A3|b2b {b}afd|
Agf e3|Tf3 efe|dcB A2a|bgb afd|Afe d2:|]

